X:1
T:De Golyer -- Hornpipe
R:hornpipe
C:Garfield
B:Cole's 1000 Fiddle Tunes
M:2/4
L:1/16
K:Bb
uF2|BABc Bcde|f=efg fdcB|f=efg fdcB|AfcA F2(GA)|
BABc Bcde|f=efg ffga|bagf =efga|f2f2f2:|
|:vcB|Afcf Afcf|Bfdf Bfdf|gaba gfed|cBAG FG"4"AF|
BcdB GA=BG|cdec ABcA|Bbag fedc|d2B2B2:|
